X: 1
T: Minuet fr\aan Sk\aane
C: trad (arr. Sunniva Brynnel)
O: Sk\aane, Sweden
F: https://app.box.com/s/u6iiren0igvsukrhdducy7orq72jayq8/file/784353093782
S: Bruce Sagan's "scanfolk" session archive 2021-3-21
R: minuet
Z: 2021 John Chambers <jc:trillian.mit.edu>
M: 3/4
L: 1/16
K: D
|:\
"D"D4 D2E2 F2ED | "A/D"A4 A2B2 c2BA | "G/D"d4 ((3e2f2g2 (3f2e2d2) | .d2z2 "A/D"c4- c2cd | "G/D"B2>B2 B2g2 f2g2 |
"D"A2>A2 A2f2 e2f2 | "G/D"G4 G2E2 F2G2 | "D"A2d2 F2A2 D4 | "G/D"EFGF D2F2 A4 | "A/D"A,2C2 "G/D"E4 "A/D"D4 :|
|:\
"D"D4 f2>e2 f2g2 | "A/D"f2e2 e8 | "G/D"d4 d2c2 d2e2 | "A/D"d2c2 c6 "D/F#"cd | "G"B2>B2 B2g2 f2g2 |
"D/F#"A2>A2 A2f2 e2f2 | "Em"G4 G2E2 F2G2 | "D/F#"A2d2 F2A2 D4 | "G/D"EFGF D2F2 A4 | "A7sus4"A,2C2 "G"E4 "A7sus4"D4 :|
